packages/sources/icons/src/vitamix/heart-pulse-line.svg

<svg width="16" height="16" viewBox="0 0 16 16" xmlns="http://www.w3.org/2000/svg"><path d="M11 2C13.0254 2 14.6667 3.66667 14.6667 6C14.6667 10.6667 9.66669 13.3333 8.00002 14.3333C6.68202 13.5427 3.27802 11.7087 1.91269 8.66733L0.666687 8.66667V7.33333H1.47335C1.38269 6.90933 1.33335 6.46533 1.33335 6C1.33335 3.66667 3.00002 2 5.00002 2C6.24002 2 7.33335 2.66667 8.00002 3.33333C8.66669 2.66667 9.76002 2 11 2ZM11 3.33333C10.2827 3.33333 9.50669 3.71333 8.94269 4.276L8.00002 5.21867L7.05735 4.276C6.49335 3.71333 5.71735 3.33333 5.00002 3.33333C3.70669 3.33333 2.66669 4.43733 2.66669 6C2.66669 6.45667 2.72669 6.90133 2.84469 7.33333H4.28935L5.66669 5.03733L7.66669 8.37067L8.28935 7.33333H11.3334V8.66667H9.04402L7.66669 10.9627L5.66669 7.62933L5.04402 8.66667H3.40535C3.93202 9.58267 4.72869 10.4453 5.76335 11.2687C6.26002 11.6633 6.79002 12.032 7.37735 12.402C7.57669 12.528 7.77402 12.6487 8.00002 12.7833C8.22602 12.6487 8.42335 12.528 8.62269 12.4027C9.21002 12.032 9.74002 11.6633 10.236 11.2687C12.2234 9.68867 13.3334 7.962 13.3334 6C13.3334 4.42667 12.3087 3.33333 11 3.33333Z"/></svg>

<svg width="16" height="16" xmlns="http://www.w3.org/2000/svg"><path d="M11 2c2.025 0 3.667 1.667 3.667 4 0 4.667-5 7.333-6.667 8.333-1.318-.79-4.722-2.624-6.087-5.666H.667V7.333h.806A6.357 6.357 0 0 1 1.333 6C1.333 3.667 3 2 5 2c1.24 0 2.333.667 3 1.333C8.667 2.667 9.76 2 11 2Zm0 1.333c-.717 0-1.493.38-2.057.943L8 5.219l-.943-.943c-.564-.563-1.34-.943-2.057-.943-1.293 0-2.333 1.104-2.333 2.667 0 .457.06.901.178 1.333h1.444l1.378-2.296 2 3.334.622-1.038h3.044v1.334H9.044l-1.377 2.296-2-3.334-.623 1.038H3.405c.527.916 1.324 1.778 2.358 2.602a18.17 18.17 0 0 0 1.614 1.133c.2.126.397.247.623.381.226-.134.423-.255.623-.38.587-.371 1.117-.74 1.613-1.134 1.987-1.58 3.097-3.307 3.097-5.269 0-1.573-1.024-2.667-2.333-2.667Z"/></svg>
